src/themes/images/header-icon2.svg

<?xml version="1.0" encoding="UTF-8"?>
<svg fill="none" viewBox="0 0 32 32" xmlns="http://www.w3.org/2000/svg">
<path d="m10.797 22.385-4e-4 0.1056 0.0424 0.0967c0.1227 0.2797 0.3946 0.3835 0.546 0.427l4.591 1.3164 0.1378-0.4806-0.1378 0.4806c0.1907 0.0547 0.3904 0.0688 0.5905 0.0272 0.2095-0.0436 0.4046-0.1308 0.5723-0.2691l12.519-10.32c0.0707-0.0583 0.1517-0.1362 0.2135-0.2359 0.0575-0.0927 0.1168-0.2363 0.0965-0.4088-0.0162-0.2038-0.1317-0.3504-0.2415-0.4364-0.1075-0.0842-0.2296-0.1297-0.3261-0.1573l-4.591-1.3165c-0.209-0.0599-0.4227-0.0621-0.6321-0.0185-0.2002 0.0416-0.3776 0.1342-0.5308 0.2604l-4.4638 3.6797-2.7786-0.7968 3.9335-3.2425c0.0707-0.0583 0.1517-0.1362 0.2135-0.2359 0.0575-0.0927 0.1168-0.2363 0.0965-0.4088-0.0162-0.2038-0.1317-0.3504-0.2415-0.4364-0.1075-0.08413-0.2296-0.12964-0.3261-0.15731l-4.5679-1.3098c-0.209-0.05994-0.4227-0.06213-0.6322-0.01856-0.2001 0.04163-0.3776 0.13421-0.5307 0.26044l-12.519 10.32 0.31804 0.3858-0.31804-0.3858c-0.12154 0.1002-0.32949 0.3038-0.33042 0.6092l-1.6e-4 0.0522 0.01063 0.0511c0.04427 0.2129 0.18891 0.3369 0.28224 0.3977 0.09669 0.063 0.20339 0.1018 0.2953 0.1282l4.5679 1.3098c0.19077 0.0547 0.39041 0.0689 0.59056 0.0272 0.20946-0.0435 0.40452-0.1307 0.57232-0.2691l4.4452-3.6644 2.7787 0.7968-3.915 3.2272c-0.1215 0.1002-0.3295 0.3039-0.3304 0.6092z" stroke="#fff"/>
</svg>

<svg width="32" height="32" viewBox="0 0 32 32" fill="none" xmlns="http://www.w3.org/2000/svg">
<path d="M10.7974 22.3852L10.797 22.4908L10.8394 22.5875C10.9621 22.8672 11.234 22.971 11.3854 23.0145L15.9764 24.3309L16.1142 23.8503L15.9764 24.3309C16.1671 24.3856 16.3668 24.3997 16.5669 24.3581C16.7764 24.3145 16.9715 24.2273 17.1392 24.089L29.6581 13.7693C29.7288 13.711 29.8098 13.6331 29.8716 13.5334C29.9291 13.4407 29.9884 13.2971 29.9681 13.1246C29.9519 12.9208 29.8364 12.7742 29.7266 12.6882C29.6191 12.604 29.497 12.5585 29.4005 12.5309L24.8095 11.2144C24.6005 11.1545 24.3868 11.1523 24.1774 11.1959C23.9772 11.2375 23.7998 11.3301 23.6466 11.4563L19.1828 15.136L16.4042 14.3392L20.3377 11.0967C20.4084 11.0384 20.4894 10.9605 20.5512 10.8608C20.6087 10.7681 20.668 10.6245 20.6477 10.452C20.6315 10.2482 20.516 10.1016 20.4062 10.0156C20.2987 9.93147 20.1766 9.88596 20.0801 9.85829L15.5122 8.54846C15.3032 8.48852 15.0895 8.48633 14.88 8.5299C14.6799 8.57153 14.5024 8.66411 14.3493 8.79034L1.83047 19.1101L2.14851 19.4959L1.83047 19.1101C1.70893 19.2103 1.50098 19.4139 1.50005 19.7193L1.49989 19.7715L1.51052 19.8226C1.55479 20.0355 1.69943 20.1595 1.79276 20.2203C1.88945 20.2833 1.99615 20.3221 2.08806 20.3485L6.65598 21.6583C6.84675 21.713 7.04639 21.7272 7.24654 21.6855C7.456 21.642 7.65106 21.5548 7.81886 21.4164L12.2641 17.752L15.0428 18.5488L11.1278 21.776C11.0063 21.8762 10.7983 22.0799 10.7974 22.3852Z" stroke="white"/>
</svg>
